symbols/web/9mp/materialsymbolsoutlined/9mp_wght300gradN25_48px.svg

<svg xmlns="http://www.w3.org/2000/svg" height="48" width="48"><path d="M19.1 22.3h6.2q.65 0 1.2-.55.55-.55.55-1.2v-7.8q0-.65-.55-1.2-.55-.55-1.25-.55h-4.4q-.65 0-1.2.55-.55.55-.55 1.2v2.9q0 .65.55 1.2.55.55 1.2.55h4.2v2.95H19.1Zm1.95-6.35v-3.2h4v3.2ZM12.15 37h1.95v-9.35h3.1v6.25h2v-6.25h3.35V37h2v-9.65q0-.6-.525-1.125T22.85 25.7H13.8q-.6 0-1.125.525t-.525 1.125Zm15.75 0h2v-3.1h4.25q.65 0 1.175-.525t.525-1.175v-4.85q0-.6-.525-1.125T34.15 25.7H27.9Zm2-5.1v-4.25h3.95v4.25ZM9.95 40.85q-1.15 0-1.975-.825-.825-.825-.825-1.975V9.95q0-1.15.825-1.975Q8.8 7.15 9.95 7.15h28.1q1.15 0 1.975.825.825.825.825 1.975v28.1q0 1.15-.825 1.975-.825.825-1.975.825Zm0-2.2h28.1q.25 0 .425-.175t.175-.425V9.95q0-.25-.175-.425t-.425-.175H9.95q-.25 0-.425.175t-.175.425v28.1q0 .25.175.425t.425.175Zm-.6-29.3V38.65 9.35Z"/></svg>

<svg xmlns="http://www.w3.org/2000/svg" height="48" width="48"><path d="M19.1 22.3H25.3Q25.95 22.3 26.5 21.75Q27.05 21.2 27.05 20.55V12.75Q27.05 12.1 26.5 11.55Q25.95 11 25.25 11H20.85Q20.2 11 19.65 11.55Q19.1 12.1 19.1 12.75V15.65Q19.1 16.3 19.65 16.85Q20.2 17.4 20.85 17.4H25.05V20.35H19.1ZM21.05 15.95V12.75H25.05V15.95ZM9.95 40.85Q8.8 40.85 7.975 40.025Q7.15 39.2 7.15 38.05V9.95Q7.15 8.8 7.975 7.975Q8.8 7.15 9.95 7.15H38.05Q39.2 7.15 40.025 7.975Q40.85 8.8 40.85 9.95V38.05Q40.85 39.2 40.025 40.025Q39.2 40.85 38.05 40.85ZM9.95 38.65H38.05Q38.3 38.65 38.475 38.475Q38.65 38.3 38.65 38.05V9.95Q38.65 9.7 38.475 9.525Q38.3 9.35 38.05 9.35H9.95Q9.7 9.35 9.525 9.525Q9.35 9.7 9.35 9.95V38.05Q9.35 38.3 9.525 38.475Q9.7 38.65 9.95 38.65ZM9.35 9.35Q9.35 9.35 9.35 9.525Q9.35 9.7 9.35 9.95V38.05Q9.35 38.3 9.35 38.475Q9.35 38.65 9.35 38.65Q9.35 38.65 9.35 38.475Q9.35 38.3 9.35 38.05V9.95Q9.35 9.7 9.35 9.525Q9.35 9.35 9.35 9.35ZM13.8 25.7Q13.2 25.7 12.675 26.225Q12.15 26.75 12.15 27.35V37H14.1V27.65H17.2V33.9H19.2V27.65H22.55V37H24.55V27.35Q24.55 26.75 24.025 26.225Q23.5 25.7 22.85 25.7ZM27.9 25.7V37H29.9V33.9H34.15Q34.8 33.9 35.325 33.375Q35.85 32.85 35.85 32.2V27.35Q35.85 26.75 35.325 26.225Q34.8 25.7 34.15 25.7ZM29.9 27.65H33.85V31.9H29.9Z"/></svg>
